mihsuhanov/calibration_new/base_circles_exp_9.csv
q1,q2,q3,q4,q5,q6,px_r,py_r,pz_r,joint
-9.925884272601752e-06,-5.1196208914992215e-06,1.569948990471536,1.0201009304464576e-05,-1.570008093868481,2.9306728450709604e-06,0.18676625192165375,-0.839373767375946,-1.7994180917739868,1.0
0.06280596107835598,-2.6522138145542383e-06,1.5699474015219321,1.3192655460995657e-05,-1.570018056877164,-3.874468050654415e-06,0.1924113780260086,-0.8392271399497986,-1.7718201875686646,1.0
0.12560894913463927,7.60782797909091e-07,1.5699533728322943,9.449704019035114e-06,-1.5700188283352,-4.424888812610285e-06,0.19998811185359955,-0.8394641876220703,-1.7453579902648926,1.0
0.1883960322222906,-4.848135604034419e-07,1.5699464226539352,1.0895565208360063e-05,-1.5700182643301437,9.329649754044399e-08,0.20946104824543,-0.8405753970146179,-1.721448302268982,1.0
0.25120068976199067,-5.316566979945981e-06,1.5699490877087723,1.344412454190311e-05,-1.5700144349030285,1.393478132401912e-06,0.22046084702014923,-0.841465175151825,-1.6977182626724243,1.0
0.31400647452025,-1.276402447962936e-07,1.5699506713075895,1.2773364707778663e-05,-1.5700207742890706,-2.7924824831259297e-07,0.2329365462064743,-0.8421531319618225,-1.6741912364959717,1.0
0.37680500214599333,2.8992286876484997e-07,1.5699460529254927,1.0735759979367511e-05,-1.5700185564223677,-5.461708068791529e-06,0.2469695508480072,-0.842621922492981,-1.651404857635498,1.0
0.43960395167429905,2.7614795593172585e-06,1.5699515828548707,1.2377643053837652e-05,-1.5700226062583746,-3.6460493741164146e-06,0.2618471086025238,-0.8416053056716919,-1.6263097524642944,1.0
0.5024007996607338,-2.9705591067016072e-06,1.5699536550763078,1.1956153469961935e-05,-1.570016929857883,3.349016880577654e-06,0.2789686918258667,-0.842060923576355,-1.6051524877548218,1.0
0.5651693370942619,1.0776038148595406e-06,1.5699455319177051,9.187371156569294e-06,-1.570021109831291,5.7644233336811365e-06,0.29714933037757874,-0.8425048589706421,-1.585322618484497,1.0
0.627987149356448,-1.8038247256948228e-06,1.5699393370549997,1.168871563632722e-05,-1.570021943620807,5.1693907848208e-06,0.3167990744113922,-0.8428170680999756,-1.5663188695907593,1.0
0.6907838693880355,4.958496187020532e-07,1.5699539802411657,1.1811448634783053e-05,-1.5700175988858303,-1.311177186344472e-06,0.3375612497329712,-0.843258261680603,-1.548859715461731,1.0
0.753580348806432,4.3347466403845944e-06,1.5699487728346841,1.3982053508800146e-05,-1.5700142649475883,-1.5111689265342552e-06,0.3594020903110504,-0.8434665203094482,-1.5325011014938354,1.0
0.816381392184708,-4.036202252535055e-06,1.5699546437028156,9.81764085532991e-06,-1.5700171309548279,-9.227267099232372e-06,0.3822609782218933,-0.8435336947441101,-1.5168516635894775,1.0
0.8791787011137677,1.0380171730418851e-06,1.569946976401502,1.0469747521148147e-05,-1.5700231460070917,-6.481208997907642e-06,0.4061792492866516,-0.843582808971405,-1.5032343864440918,1.0
0.9419808124682996,3.1988003503813024e-07,1.5699492060111802,1.2179161762468395e-05,-1.5700137174445494,-6.712701776571897e-06,0.4311140477657318,-0.8440091013908386,-1.4913370609283447,1.0
1.0047792209293078,-8.318264542019715e-07,1.5699518013237206,1.0435159802589378e-05,-1.5700251384728638,4.02690609686503e-06,0.45659738779067993,-0.8438982367515564,-1.4802230596542358,1.0
1.0675777458586306,-2.2879072430780256e-06,1.5699500620895057,1.4771316740748245e-05,-1.5700164840501354,-2.256695505378207e-06,0.4825802743434906,-0.8438359498977661,-1.4709808826446533,1.0
1.1303727223005815,1.4723202524832618e-06,1.5699597447231133,1.5283076359686233e-05,-1.5700220173143915,-5.624402752217156e-06,0.5088883638381958,-0.8430929780006409,-1.4623520374298096,1.0
1.1931830026978263,-1.0974443561928387e-06,1.5699489658122823,1.1797151439534387e-05,-1.5700210556155296,-3.313417039651165e-06,0.5356550216674805,-0.8426483273506165,-1.455451250076294,1.0
1.255979728146533,2.816322158766097e-06,1.569949033709562,1.0046829834038228e-05,-1.5700213533965708,-4.042338647699226e-06,0.5625553727149963,-0.841775119304657,-1.4498835802078247,1.0
1.3187825809354496,7.436406183650036e-07,1.5699526977126577,8.696290081930122e-06,-1.5700204481786624,-4.533624564712504e-06,0.5895392894744873,-0.840613842010498,-1.4452953338623047,1.0
1.381581835899136,3.4422444258846805e-06,1.569950243230166,1.0233421478161444e-05,-1.5700176499509162,-4.649017030395776e-07,0.6164622902870178,-0.839460551738739,-1.4426493644714355,1.0
1.4443848329787707,9.666591996785303e-07,1.5699436634790367,5.728981215834776e-06,-1.570016945193049,1.292801254128749e-06,0.6436986327171326,-0.8385413289070129,-1.4424231052398682,1.0
1.507180213649458,-3.967625872517011e-07,1.5699492922712552,8.698017795715771e-06,-1.5700213057799592,-8.195846124632862e-08,0.6705834269523621,-0.8376421332359314,-1.4436407089233398,1.0
1.5699819424116426,-1.9803453203220474e-06,1.5699581843825132,1.1304934269898913e-05,-1.5700226745558559,1.7107898597637556e-06,0.6972113847732544,-0.8366199135780334,-1.4465184211730957,1.0
1.6327779090529788,4.952849641623259e-06,1.5699478745201394,1.1398379594695029e-05,-1.5700170401109248,1.0694768960977386e-06,0.7241032719612122,-0.836286187171936,-1.4522711038589478,1.0
1.6955774445899672,4.471161986675855e-06,1.569950545527733,1.420320967631139e-05,-1.570023964859641,4.76254003675082e-06,0.7514997124671936,-0.8366058468818665,-1.4610732793807983,1.0
1.7583804474996,2.862600807249664e-06,1.5699486999707466,1.7235412891648606e-05,-1.570014323013919,2.94423218400126e-06,0.7778570055961609,-0.836733877658844,-1.4708822965621948,1.0
1.8211799524192422,-4.1458153077271887e-07,1.5699475946017594,1.5810905585039082e-05,-1.5700258172008004,-6.7667581725397485e-06,0.8037062883377075,-0.8366950750350952,-1.4823827743530273,1.0
1.8839754964796858,-3.729389726052093e-06,1.5699505735120902,1.1730041855743632e-05,-1.5700237081591182,-4.453980143510198e-06,0.8289429545402527,-0.8368974328041077,-1.4957102537155151,1.0
1.9467721697516123,-4.5639055274770247e-07,1.569949311253121,1.3085693330158438e-05,-1.5700233566136228,1.1730806074999763e-07,0.8530641794204712,-0.836669921875,-1.51006019115448,1.0
2.0095835109415123,-1.5293879167594312e-06,1.5699549177309922,1.1056613059063203e-05,-1.570012541639071,-4.605235235452629e-07,0.8761539459228516,-0.8363835215568542,-1.5256115198135376,1.0
2.0723790473303487,6.381228719241546e-07,1.5699477483329523,6.698052972725767e-06,-1.570020294856019,-8.816541377247797e-07,0.8982009291648865,-0.8361676931381226,-1.5425090789794922,1.0
2.135181932016934,5.892667488173325e-07,1.5699481007778175,1.3813546576207644e-05,-1.5700223156746134,-7.168234539788946e-06,0.9187960028648376,-0.8354284763336182,-1.5601245164871216,1.0
2.1979799003970113,-4.176112443106338e-06,1.5699523971539324,1.1379217713920321e-05,-1.570017889641138,-5.823825480126191e-06,0.9373558759689331,-0.8340195417404175,-1.5774526596069336,1.0
2.2607731021044652,6.350914067943128e-06,1.569948592770982,1.1228966915802365e-05,-1.5700236857396348,-9.003241704392922e-06,0.9556551575660706,-0.8336267471313477,-1.5977060794830322,1.0
2.3235842116048717,-8.453729734049704e-07,1.5699472444005718,1.2723548053090884e-05,-1.5700163422076006,-5.131302842537912e-06,0.9733668565750122,-0.833749532699585,-1.6204242706298828,1.0
2.386381086176339,2.8119239152105357e-06,1.5699528059168621,1.0671997174596695e-05,-1.5700206941985988,3.4680890432732173e-06,0.9890993237495422,-0.83335280418396,-1.6431019306182861,1.0
2.449168190610344,-1.9683719050427435e-06,1.569952863492982,1.2924536528985408e-05,-1.570023469919534,-8.629130510013673e-06,1.0034794807434082,-0.833062469959259,-1.666774034500122,1.0
2.511970794913708,1.7081815353497128e-06,1.5699561498667391,9.240650017390285e-06,-1.5700210848159477,-2.1900480813056756e-06,1.016315221786499,-0.8327458500862122,-1.6914560794830322,1.0
2.5748025514297033,3.922390050557896e-06,1.5699481579882588,1.0885249713241187e-05,-1.570028052202062,-2.0372205202866042e-06,1.027654767036438,-0.8325150012969971,-1.7170329093933105,1.0
2.6375909344049795,-7.008631562577966e-07,1.5699450254332608,1.2098731796028987e-05,-1.570026703340205,-1.259990725126316e-06,1.036630630493164,-0.8318073153495789,-1.7419501543045044,1.0
2.700380566869731,1.2676982924557407e-06,1.5699507750624246,1.1525652164710521e-05,-1.570018877827552,-1.1726091056604116e-06,1.0445246696472168,-0.8314133882522583,-1.7681057453155518,1.0
2.76317958622013,-2.706189541135065e-06,1.5699546634914783,1.1465786898066026e-05,-1.5700254967676865,-1.2878383026004913e-06,1.0508882999420166,-0.8311576843261719,-1.7952194213867188,1.0
2.8259743549980327,4.194371654320374e-06,1.5699465964003327,1.1011506763414837e-05,-1.5700216508871556,-5.057877337056192e-06,1.0553066730499268,-0.8308058977127075,-1.822081208229065,1.0
2.8887872581537652,-2.0831734968332655e-06,1.5699566454048441,1.5823330997562534e-05,-1.5700170899208579,-4.109915463296003e-06,1.0581055879592896,-0.8304612636566162,-1.8497663736343384,1.0
2.9515812709990636,2.3417884540856202e-06,1.5699530156969168,1.4059923521020313e-05,-1.570024212787365,3.078451577344801e-06,1.059173583984375,-0.8301615715026855,-1.8770174980163574,1.0
3.0143758453962106,2.9294997698638575e-06,1.5699504348850042,1.1287119901387027e-05,-1.5700159170107015,-6.128417005511037e-06,1.0583018064498901,-0.8297348022460938,-1.9040465354919434,1.0
3.077177242843919,-1.7451496758946043e-06,1.5699495759429134,1.0960832245548498e-05,-1.5700204473631894,-7.791078342460562e-07,1.055879831314087,-0.8294042348861694,-1.9313182830810547,1.0
-2.762390933729275e-05,-1.0400692714408364,-2.8295460060780168e-05,6.5549201648273305e-06,3.1116808976204015e-06,-1.4990865778705168e-06,1.0538609027862549,-0.9411622881889343,-2.5363166332244873,2.0
-3.469011527172535e-05,-0.9983236190720248,-2.2973521395445104e-05,2.8510351119463004e-06,6.552462794087103e-06,5.254151510674995e-06,1.0373233556747437,-0.9112082123756409,-2.524404764175415,2.0
-3.208622419054379e-05,-0.956763891378855,-2.9129894835866015e-05,7.758239414353234e-06,1.3173078445799973e-05,-1.1656490392970354e-07,1.0202513933181763,-0.8823652267456055,-2.512674331665039,2.0
-2.5008745698986238e-05,-0.9151607146189332,-3.944718455033932e-05,6.334811647383916e-06,6.50941140083691e-06,3.3465700418637613e-06,1.0019546747207642,-0.8543763160705566,-2.500253200531006,2.0
-2.738360403864349e-05,-0.8735727268429455,-3.098796550137038e-05,1.0322411714896905e-05,1.808273352279202e-05,-5.693590791637771e-07,0.9833688735961914,-0.8276886940002441,-2.4876484870910645,2.0
-3.6965232794058975e-05,-0.8319287288931152,-3.0405168614967472e-05,6.1232391236725685e-06,1.3520351572671589e-05,5.862861114883477e-07,0.9633607864379883,-0.8016234636306763,-2.4738686084747314,2.0
-2.834240301970782e-05,-0.7903719361337299,-2.8022932067216753e-05,1.1891743089611308e-05,1.4901183554372614e-05,4.511465304834623e-06,0.943376898765564,-0.777114987373352,-2.461019277572632,2.0
-3.125152993169068e-05,-0.748786547930512,-3.404678205847921e-05,1.1147063215955064e-05,1.3501675597282282e-05,-6.3880848047649125e-06,0.9218289852142334,-0.7532863616943359,-2.4464333057403564,2.0
-3.130897387881801e-05,-0.7071382976121505,-3.426514625054151e-05,1.0444646636615143e-05,1.6073303461082194e-05,6.527965628776187e-06,0.8991210460662842,-0.730186939239502,-2.4298222064971924,2.0
-2.7947402817403848e-05,-0.6655492855970693,-3.464783381508039e-05,1.1243884787907268e-05,5.22672074486901e-06,2.911041946714956e-07,0.8759473562240601,-0.7083767056465149,-2.4132375717163086,2.0
-2.387927673558854e-05,-0.6239362487127403,-3.400048071467931e-05,2.222055325070194e-05,1.0497545451295831e-05,3.4954923122997238e-06,0.852404773235321,-0.6880493760108948,-2.397301197052002,2.0
-2.752536327103711e-05,-0.5823717581592048,-3.416678150906318e-05,9.902733353060157e-06,1.2756574947986223e-05,-2.8957330092560126e-06,0.8273715972900391,-0.6685891151428223,-2.3790082931518555,2.0
-3.773431035843265e-05,-0.5407704949266035,-3.43165555283714e-05,1.784149719986336e-05,1.4936434385767528e-05,-1.1071035453883674e-06,0.8022091388702393,-0.650346040725708,-2.360867977142334,2.0
-3.21307582643383e-05,-0.4991527403807781,-3.7580433064326e-05,1.2323174309351094e-05,1.3871906975778467e-05,1.6391142710879291e-06,0.7769936919212341,-0.6338580846786499,-2.34346604347229,2.0
-3.556289148624276e-05,-0.45756701231011726,-3.593270641295247e-05,1.2215438512670377e-05,9.270811866382418e-06,8.850715149366259e-08,0.7505360841751099,-0.618323028087616,-2.3248608112335205,2.0
-3.5413538483600254e-05,-0.41594924921104587,-3.6401821615419484e-05,1.3182570302805655e-05,7.42337211970249e-06,-7.809973967588456e-06,0.7236465215682983,-0.6042476892471313,-2.305459976196289,2.0
-2.6964326865140008e-05,-0.3743484356277361,-3.529261823968276e-05,1.2558497141429334e-05,1.0054922538156787e-05,6.177173570379742e-07,0.6962302923202515,-0.5911691188812256,-2.284572124481201,2.0
-2.98185878952652e-05,-0.33277241958613507,-3.735812438599353e-05,8.733057548953934e-06,6.192610678863139e-06,1.4449732544744516e-06,0.6683542728424072,-0.5795379281044006,-2.264244318008423,2.0
-2.8630038449647656e-05,-0.291173446074679,-3.291031182054595e-05,1.2319802306255022e-05,1.578102560619122e-05,4.033012101648691e-06,0.6404302716255188,-0.569669783115387,-2.2442703247070312,2.0
-2.9166408334764217e-05,-0.24955580987928827,-3.329272550089089e-05,1.198882416366125e-05,7.067377426249151e-06,-1.6625486942315231e-06,0.6126182675361633,-0.56142657995224,-2.2251486778259277,2.0
-3.0332868021089346e-05,-0.20799990372872273,-3.269148863320087e-05,1.063680967963712e-05,1.3228838278772727e-05,2.3059855363396565e-06,0.5842132568359375,-0.5542207360267639,-2.2044568061828613,2.0
-2.2217611687702674e-05,-0.16632521734458836,-3.40213276868882e-05,8.156072005894473e-06,1.1034408851106938e-05,4.600733063860696e-06,0.5554644465446472,-0.5481704473495483,-2.1838905811309814,2.0
-2.483437781859646e-05,-0.1247588213651955,-3.0605537574215614e-05,1.0033511583330877e-05,1.2192619615556518e-05,4.994372201990302e-07,0.5270657539367676,-0.5443397760391235,-2.1641616821289062,2.0
-3.275548300124259e-05,-0.08313611483782778,-3.732995284680301e-05,2.0918213077205658e-06,1.0876645133204847e-05,1.0020496306898191e-06,0.49869441986083984,-0.5418457388877869,-2.1447527408599854,2.0
-3.119010594819829e-05,-0.04154751723451753,-3.046335798411755e-05,1.1463700415519614e-05,1.9201586216843712e-05,4.0024508417522063e-07,0.4696839153766632,-0.5409684777259827,-2.1248269081115723,2.0
-2.914803467144974e-05,1.3476103291865642e-05,-3.965508018547961e-05,1.2860992557071813e-05,1.4212967205584128e-05,2.153333179627564e-06,0.4412287473678589,-0.5415012836456299,-2.1048429012298584,2.0
-3.821992978826913e-05,0.04165406307857982,-3.2721925568604684e-05,1.5714024607831244e-05,3.517964170363363e-06,1.7730118538029717e-06,0.41234591603279114,-0.5429153442382812,-2.083726644515991,2.0
-3.062023146159683e-05,0.08321537404363119,-2.8755600064816638e-05,1.3446115706735766e-05,1.3461307929094667e-05,-3.266038632456359e-06,0.38332515954971313,-0.5459378361701965,-2.0619442462921143,2.0
-3.7377934582271935e-05,0.12486010565780617,-3.586874174507306e-05,1.4921617196929823e-05,9.22697394632108e-06,-4.121465267817639e-06,0.35471591353416443,-0.5504599213600159,-2.0404775142669678,2.0
-2.771229909862274e-05,0.16643171948941762,-3.721795948435025e-05,1.3514924108257782e-05,9.148716846043853e-06,6.677358516503881e-06,0.32619932293891907,-0.5565059781074524,-2.019160747528076,2.0
-3.0307400548888203e-05,0.2080574281101937,-3.4680956801797744e-05,1.5806186654462974e-05,1.2143993723883205e-05,4.828379185401467e-06,0.2982439398765564,-0.5637953281402588,-1.9987330436706543,2.0
-2.662945436965629e-05,0.24963385932848484,-3.9120036173500954e-05,9.779239371669485e-06,1.699174171818281e-05,8.508929874031831e-06,0.270209401845932,-0.5724819302558899,-1.9785645008087158,2.0
-3.1707064302824966e-05,0.29123488481935267,-3.503381820292259e-05,1.513561592801266e-05,1.3340050400135069e-05,-2.3515904334765653e-06,0.24291127920150757,-0.583110511302948,-1.9588254690170288,2.0
-3.148406567446996e-05,0.3328347678585335,-2.9759029501348034e-05,1.329514667615683e-05,9.93810580665398e-06,-1.6785147335352648e-06,0.21610018610954285,-0.5946400165557861,-1.9395438432693481,2.0
-3.342880969715715e-05,0.37444909731647297,-3.3735321445595586e-05,1.0055740183155829e-05,8.86590246829341e-06,2.113905154841295e-06,0.18948902189731598,-0.6083614826202393,-1.9215161800384521,2.0
-3.5179078762782574e-05,0.41606054383386193,-3.382782322754667e-05,5.215291102998215e-06,8.239965551299161e-06,2.4542348425831688e-06,0.16353115439414978,-0.6232297420501709,-1.9040623903274536,2.0
-2.94629133978284e-05,0.4576253710142596,-3.2555163786553706e-05,6.166289201279991e-06,1.4633519677540264e-05,5.36543032368187e-07,0.13811291754245758,-0.639711320400238,-1.8872969150543213,2.0
-2.9212740583001775e-05,0.4992263659174099,-4.071356192540988e-05,1.3745188682686066e-05,1.1975643983632093e-05,-8.694637445654662e-06,0.11314185708761215,-0.6572511792182922,-1.8703593015670776,2.0
-3.065347662087739e-05,0.5408615183297549,-3.004714295554965e-05,1.3235367209190982e-05,6.92004879931333e-06,3.0777154186374325e-06,0.08869870007038116,-0.6758820414543152,-1.853185772895813,2.0
-2.244469997791098e-05,0.5824417470488084,-2.9938233388189377e-05,1.164864151848246e-05,1.2443572003875571e-05,-8.298036171615356e-06,0.06511614471673965,-0.6963711380958557,-1.8376153707504272,2.0
-2.7060205325977478e-05,0.6240195807876515,-2.9256735770075663e-05,1.57678294269121e-05,8.036649677673312e-06,-2.5063402957442614e-06,0.042008236050605774,-0.7177855372428894,-1.822343349456787,2.0
-2.251548975040092e-05,0.6656446695609854,-3.099809586327817e-05,1.6223202066038412e-05,4.146335187679142e-06,-1.3046892267605325e-06,0.019634289667010307,-0.7405510544776917,-1.8076425790786743,2.0
-3.4526179910748945e-05,0.7072013913815632,-3.25696836520129e-05,1.2654587603311885e-05,1.1751589002358944e-05,8.969491058596332e-07,-0.0018422858556732535,-0.764421820640564,-1.7934503555297852,2.0
-2.6289398510153257e-05,0.7488577631914781,-3.562195162957649e-05,1.1682802130268412e-05,1.4886219025738977e-05,-5.290603327064569e-06,-0.022609446197748184,-0.7884407639503479,-1.7773653268814087,2.0
-3.8087023879464734e-05,0.7904829476490989,-3.2824004878396816e-05,1.4514531264855211e-05,1.3227782008037424e-05,-5.516515717776269e-06,-0.04259762912988663,-0.8132513761520386,-1.7617305517196655,2.0
-2.5912967977394442e-05,0.8320294371198006,-2.8852782320274206e-05,1.2403559530382904e-05,1.3002817860739914e-05,8.355507251423027e-06,-0.06156768649816513,-0.8392057418823242,-1.7469736337661743,2.0
-2.951344668316566e-05,0.8736542688301857,-2.4769038191051883e-05,1.0485827988077907e-05,8.401029416992935e-06,2.0738871570557916e-06,-0.07941868901252747,-0.8664237260818481,-1.7335288524627686,2.0
-3.3565600561218324e-05,0.9152157597834228,-3.19723183892838e-05,1.246592689647791e-05,1.8228600804760837e-05,-6.784321274583277e-06,-0.09656959027051926,-0.8939772248268127,-1.7199761867523193,2.0
-3.3139866582740634e-05,0.9568783277887766,-4.28180091857615e-05,1.0857306563151056e-05,1.644768086714764e-05,-3.171224179267642e-06,-0.11256664991378784,-0.9230855703353882,-1.7078723907470703,2.0
-3.552948151884658e-05,0.9983958528198588,-3.1519427787727396e-05,7.622447231718908e-06,9.727164295300506e-06,9.895286799159054e-07,-0.12774553894996643,-0.9528317451477051,-1.6968765258789062,2.0
