mihsuhanov/calibration_new/tool_circles_exp_6_2.csv
q1,q2,q3,q4,q5,q6,px_r,py_r,pz_r,joint
-3.6302067917591454e-06,3.0541361885819837e-06,1.5699497703813825,-8.648224348795354e-05,-1.5700144528766036,2.2926795515825276e-05,-0.31491345167160034,-0.8679747581481934,-1.779137134552002,5.0
-3.4515797938389594e-06,6.638468671557534e-07,1.569951681046143,1.3957281199684823e-05,-1.507205578676177,1.5442096294391396e-06,-0.32243674993515015,-0.8659329414367676,-1.7860114574432373,5.0
-8.719749899062008e-06,-7.421286604962183e-06,1.5699530305814169,1.3089848321332922e-05,-1.444404596730961,-1.399805535122686e-06,-0.33004030585289,-0.8645353317260742,-1.7932462692260742,5.0
-7.720077245091787e-06,-4.4340273527679696e-06,1.569955174229714,1.0918295088095197e-05,-1.3815901995873072,-1.4887323552834178e-06,-0.3378477990627289,-0.8641748428344727,-1.8009583950042725,5.0
-7.002642404937925e-06,1.2422756864559812e-06,1.5699470897416425,1.3804384631289989e-05,-1.3187983669892072,-1.0423432808044595e-05,-0.34554389119148254,-0.8643614649772644,-1.808615803718567,5.0
-8.925983962334956e-06,-2.5997546873179988e-06,1.5699524446439626,1.3054617312212126e-05,-1.2560043849768858,5.766048271918918e-06,-0.3533695340156555,-0.8651993274688721,-1.8162957429885864,5.0
-9.840268878878771e-06,-4.628999318272697e-06,1.569951268071218,1.3212076916566911e-05,-1.1931954340532058,-6.06131576489441e-06,-0.36113986372947693,-0.8665862679481506,-1.8235821723937988,5.0
-6.458016397442682e-06,1.9312149078479386e-06,1.5699590430881933,1.484577327163629e-05,-1.1303884427420452,-2.732014611574114e-06,-0.36875665187835693,-0.8686558604240417,-1.8307788372039795,5.0
-5.809879680228697e-06,3.215980475130225e-07,1.5699516399439752,7.3032014332090065e-06,-1.0675982965349626,-1.9761530631753243e-06,-0.37627121806144714,-0.8712542057037354,-1.8379460573196411,5.0
-7.950128510895292e-06,5.668448000184311e-06,1.5699483364760463,9.95482681182877e-06,-1.0048060420871852,-4.744926727304665e-06,-0.38375335931777954,-0.874786913394928,-1.8453094959259033,5.0
-1.0476377509610536e-05,-1.8309910390709758e-06,1.5699552356221194,1.0593596774638138e-05,-0.9420049486398759,2.8479168410436153e-06,-0.3911222815513611,-0.8789041042327881,-1.85267174243927,5.0
-6.8273444316924e-06,-8.618656765743011e-08,1.5699515111025544,5.9857543888798585e-06,-0.8792037629934762,3.4408658776732867e-06,-0.3981289267539978,-0.8836336135864258,-1.859586477279663,5.0
-6.8548527362506335e-06,6.390317887154128e-06,1.5699481708020597,1.731636934190779e-05,-0.8163947539532715,-4.483087902681702e-06,-0.40518614649772644,-0.8890519142150879,-1.866536259651184,5.0
-6.402634060709925e-06,-2.501199154826358e-06,1.5699573875542563,8.700257555752492e-06,-0.7535912630512925,1.6655231576581361e-06,-0.4119848608970642,-0.8952736854553223,-1.8738993406295776,5.0
-6.141174835784663e-06,3.921926337858317e-06,1.569950801548134,1.180108727512235e-05,-0.6908027683125473,-2.5177227338387822e-06,-0.4183211028575897,-0.901645839214325,-1.8798385858535767,5.0
-9.788453954055082e-06,-8.523245661080643e-07,1.569957192209797,1.1794738817140868e-05,-0.6280034029447714,2.6723661086483685e-06,-0.42429664731025696,-0.9083077311515808,-1.8853545188903809,5.0
-6.266385242109066e-07,6.633887341867816e-06,1.5699530857332857,1.2950458034687228e-05,-0.5651867653845468,-8.114830477114198e-07,-0.4298362135887146,-0.9154767394065857,-1.8905339241027832,5.0
-1.0885239942480986e-05,5.094963027717711e-08,1.5699477278963294,9.352619248653033e-06,-0.5023946173344234,-4.8880433223953914e-06,-0.43519508838653564,-0.923043429851532,-1.895081877708435,5.0
-6.390556731175234e-06,3.0764828048612313e-06,1.5699519978951235,1.239955035999074e-05,-0.43960098366506417,1.2864780331904324e-06,-0.43992090225219727,-0.9305801391601562,-1.898114800453186,5.0
-3.4323349447139775e-06,1.5766509692137668e-06,1.5699525048964085,7.0840734330364675e-06,-0.376794317068449,-6.267074970564064e-06,-0.4442003071308136,-0.9390860795974731,-1.9022210836410522,5.0
-1.0788479684507319e-05,-2.04749833229604e-06,1.5699454390061898,1.0186687949074276e-05,-0.3140026259679292,-4.0463042554173835e-06,-0.4484247863292694,-0.9481986165046692,-1.906491994857788,5.0
-1.2598005519698873e-05,-2.057682547556809e-06,1.5699436920424792,1.5296457659809956e-05,-0.25118855721886035,6.87726957687931e-07,-0.45223304629325867,-0.957751452922821,-1.9105254411697388,5.0
-1.0996065238798716e-05,-1.6966434192517048e-06,1.5699534098152828,1.1273622841088958e-05,-0.18839988420918777,-1.1031797319455225e-05,-0.4556865692138672,-0.9674400091171265,-1.9139219522476196,5.0
-2.8924808599332685e-06,4.429677753089929e-06,1.5699511363752967,1.890560696562548e-05,-0.12561095908020994,2.0512723609212967e-07,-0.4586055874824524,-0.977642834186554,-1.9171552658081055,5.0
-2.4179928298916522e-06,-4.726457193701662e-07,1.5699510717726073,1.7430821975748745e-05,-0.06278932370153271,7.527736185368144e-06,-0.46131470799446106,-0.9881800413131714,-1.9202215671539307,5.0
-1.9549059760256214e-05,-5.647412525952082e-06,1.5699465002177524,1.1327332958398293e-05,5.280237732930969e-06,2.935193715013963e-06,-0.4633534848690033,-0.9987645745277405,-1.9226086139678955,5.0
-7.60501032271106e-06,-2.9303471447671383e-06,1.5699527484154896,5.880756000070127e-06,0.0628113814916679,5.901375924690033e-06,-0.46485432982444763,-1.0092370510101318,-1.9239914417266846,5.0
-7.421963455626676e-06,-2.84595000048031e-06,1.5699574095840547,7.186509488029254e-06,0.1256182837264732,6.362137239316566e-06,-0.46595072746276855,-1.0198962688446045,-1.9251372814178467,5.0
-3.956225478904523e-06,-2.7298802181242755e-07,1.5699491096782514,1.089998596942859e-05,0.18840323126463046,2.4008042870357994e-06,-0.4665171802043915,-1.0304750204086304,-1.9258061647415161,5.0
-6.241949620131507e-06,-3.2134602293947413e-06,1.5699460804213647,1.3455233423464677e-05,0.2511938131300636,5.1143339461998e-06,-0.4664451479911804,-1.0411418676376343,-1.925966739654541,5.0
-2.41847125425507e-06,-8.428662493629109e-07,1.5699526640076258,1.2008686352856098e-05,0.31400811284290636,9.43978176035964e-07,-0.46629199385643005,-1.0523440837860107,-1.9266390800476074,5.0
-4.373551416623499e-06,-1.1255375115718725e-06,1.5699479829739917,1.2468568421119049e-05,0.37680691658136967,7.512649181130771e-07,-0.46510806679725647,-1.0626962184906006,-1.9254097938537598,5.0
-1.1497237996912942e-05,4.860660501161034e-06,1.569950129986852,1.1159305038546046e-05,0.43960160809190374,4.110846269196307e-06,-0.4637594521045685,-1.0729824304580688,-1.9239393472671509,5.0
-4.626173993569679e-06,1.9045480727909717e-06,1.5699503150863923,9.012336742815786e-06,0.5024105408514535,2.9247204632126886e-06,-0.4616275727748871,-1.082597017288208,-1.9211629629135132,5.0
-1.3301072606544868e-05,-3.092789845050987e-06,1.5699503689162313,1.1399550382437024e-05,0.5651973061108605,-2.9719077414631816e-06,-0.45901164412498474,-1.0921947956085205,-1.9182837009429932,5.0
-1.284942788776e-05,1.1775701776887169e-06,1.5699511614889747,1.5226289835530326e-05,0.62801749575007,1.0135145286402814e-06,-0.45566025376319885,-1.1009764671325684,-1.9138022661209106,5.0
-6.735163702347028e-06,6.310114779452691e-07,1.5699518611802634,1.2316265612429851e-05,0.6908010476904636,-9.153330925209573e-06,-0.45214009284973145,-1.1098365783691406,-1.9099317789077759,5.0
5.264944475223254e-07,-3.222616772942981e-07,1.5699535839091845,1.0495579628938214e-05,0.7536072285472922,-4.694105667946418e-06,-0.46022123098373413,-1.0760419368743896,-1.928668737411499,5.0
-9.168493328014335e-06,-3.3330868215542546e-06,1.569948910795318,8.53711403038718e-06,0.8163985387231035,-6.07655606250769e-07,-0.45665448904037476,-1.0854490995407104,-1.9255335330963135,5.0
-5.543787262143525e-06,-5.399927310078648e-07,1.5699472211413878,6.035142531136206e-06,0.8792050796854082,-3.244283585112619e-06,-0.45204898715019226,-1.093461036682129,-1.9201387166976929,5.0
-6.199579414374436e-06,7.295906257705025e-07,1.5699467471224957,1.1033907460841218e-05,0.9420023680545893,6.02037258984842e-06,-0.4467938244342804,-1.1003460884094238,-1.9135887622833252,5.0
-9.789778553881804e-06,-6.651719397590123e-07,1.569958607556938,1.8008985760910007e-05,1.0048101247208108,-6.7922735029681425e-06,-0.4418858587741852,-1.1083269119262695,-1.9089219570159912,5.0
-6.375064954903154e-06,-5.070069453592209e-06,1.569956081159866,1.0857116383666303e-05,1.0675969038674935,5.892196062657735e-06,-0.4360927939414978,-1.1150115728378296,-1.902610421180725,5.0
-4.075248862350586e-06,-3.7721536057461727e-06,1.569948549975797,1.2178550988339006e-05,1.1303976343360997,-3.797728178640214e-06,-0.43051889538764954,-1.1216048002243042,-1.896732211112976,5.0
-6.607763666482628e-06,3.829592882110463e-06,1.5699524435000713,1.2224164366072753e-05,1.1932057522171466,1.0780881964457941e-06,-0.42445263266563416,-1.128161907196045,-1.8915022611618042,5.0
-6.9934169020245304e-06,1.5466315054892583e-06,1.5699490380679435,8.631517656668293e-06,1.256005729941997,6.59719512292007e-07,-0.41806313395500183,-1.1333391666412354,-1.8844493627548218,5.0
-4.677800491124195e-06,5.7799391675972105e-06,1.569952464304198,1.1478708678953619e-05,1.3187969357069218,1.7651823730742293e-06,-0.41128283739089966,-1.1380366086959839,-1.877426028251648,5.0
-3.7996644827613225e-06,2.3067418953730167e-06,1.5699494760165156,1.382254391838909e-05,1.3816099262159078,1.7051873785793463e-06,-0.4044641852378845,-1.1422464847564697,-1.87015962600708,5.0
-9.653774221145913e-06,6.300788064899441e-07,1.56994552876053,1.1023702202908279e-05,1.4444068824937648,7.06527485501421e-07,-0.3977266550064087,-1.1470839977264404,-1.8647210597991943,5.0
-4.911319635449399e-06,-3.282936242771107e-07,1.56994358085101,7.9079140814285e-06,1.5072164367563607,-1.7957260394083306e-06,-0.3900444209575653,-1.1491845846176147,-1.8560278415679932,5.0
-8.024370802200264e-06,1.9346409832321126e-06,1.5699501685794433,1.4510527267366553e-05,-2.959608915336659e-06,-1.5699741506881268,-0.4339941143989563,-0.9903993010520935,-1.9713257551193237,6.0
-4.8358543011824465e-06,-1.5646124350385956e-06,1.5699552087256354,1.4491762439606297e-05,-2.5043307293555294e-05,-1.507162919653867,-0.43448406457901,-0.9880059361457825,-1.9716253280639648,6.0
-9.085861643478864e-06,4.2322536058890156e-06,1.5699515807406204,1.3505448740687377e-05,-1.7568878954717832e-05,-1.4443703364706568,-0.434927374124527,-0.9851843118667603,-1.9711825847625732,6.0
-1.1307942368431159e-05,-2.777457819857262e-06,1.5699443602099046,9.645182752033696e-06,-1.2562068548761556e-05,-1.3815587345057827,-0.4356047511100769,-0.982594907283783,-1.9707896709442139,6.0
-1.3831791854574341e-05,-1.4649689871589726e-06,1.569956727027702,1.364371793138099e-05,-1.456518955739699e-05,-1.31876690263554,-0.43635261058807373,-0.9799681901931763,-1.9705332517623901,6.0
-2.460590548483449e-06,9.537381119214483e-07,1.5699526524394225,7.946923768802664e-06,-1.4686749139724812e-05,-1.255987118351919,-0.43727996945381165,-0.9773495197296143,-1.969841480255127,6.0
-4.854839283627544e-06,1.897075041052058e-06,1.5699485038809933,1.1400133874479594e-05,-1.7466665249014396e-05,-1.1931782771369397,-0.4383827745914459,-0.9750754833221436,-1.9694035053253174,6.0
-8.63246015962925e-06,5.204825075756497e-06,1.5699466602899537,1.5779146218919635e-05,-1.3322197451512354e-05,-1.1303736677255167,-0.43944627046585083,-0.9726918339729309,-1.9686769247055054,6.0
-6.4339823325262595e-06,-3.094660529894648e-06,1.5699469008278453,1.5400615051670518e-05,-1.472064231004299e-05,-1.0675769891217546,-0.44093814492225647,-0.9706804156303406,-1.9681954383850098,6.0
-3.1574550300653456e-06,-1.6792773766870566e-06,1.569949366447757,1.6241532963775525e-05,-1.561450835725976e-05,-1.0047730880171153,-0.4425123333930969,-0.9689106941223145,-1.9681519269943237,6.0
-1.117509296728653e-05,-2.4895987048158518e-06,1.5699479852250524,1.4167666362143023e-05,-1.7346557397200637e-05,-0.9419772305086038,-0.4441465437412262,-0.967559278011322,-1.968152642250061,6.0
-6.112406166411581e-06,1.1937101486601538e-06,1.5699472936688996,1.0707738106955384e-05,-1.0504083155108045e-05,-0.8791857178219363,-0.4458439350128174,-0.9660722613334656,-1.9678410291671753,6.0
-2.247468284523815e-06,5.251897308598536e-06,1.5699490393793647,8.503450193814056e-06,-1.6102820476517787e-05,-0.8163622569959237,-0.44649678468704224,-0.9626069664955139,-1.9632664918899536,6.0
-1.4731252926501959e-05,1.4517535382981849e-06,1.5699492848025733,1.1508220754898123e-05,-1.3925644806502646e-05,-0.7535730112015144,-0.44786742329597473,-0.9602060317993164,-1.9601683616638184,6.0
-1.2295773647804377e-05,1.2055151856247254e-06,1.5699447226243821,9.844748077904204e-06,-1.6825972078290925e-05,-0.6907731989634868,-0.4496113955974579,-0.9587437510490417,-1.9586942195892334,6.0
-9.886413583262105e-06,-2.3751097619768167e-06,1.5699503841201408,2.026935642124476e-05,-1.284781933117681e-05,-0.6279823635620548,-0.4515356123447418,-0.9577035903930664,-1.9576858282089233,6.0
-6.132893597598748e-06,-1.3284200604480385e-07,1.569953966326172,1.1780980216512007e-05,-1.2449976198346407e-05,-0.5651735016093128,-0.4535609781742096,-0.9567899107933044,-1.956417202949524,6.0
-1.1679642296388054e-05,-2.0448548572375306e-06,1.569951054863383,1.2684978560420501e-05,-1.4310289999662054e-05,-0.5023720605760589,-0.45537275075912476,-0.9558671712875366,-1.9551498889923096,6.0
-1.796781052682912e-05,3.004698492341231e-06,1.5699499659469212,1.431507927723633e-05,-1.0324527042949906e-05,-0.439571653067317,-0.4573793411254883,-0.9550342559814453,-1.9534199237823486,6.0
-1.9730301555651283e-06,-2.955823929383665e-06,1.5699504883892061,8.603398285617693e-06,-1.2066250517325113e-05,-0.3767821059842642,-0.459242582321167,-0.9541791081428528,-1.9513986110687256,6.0
-8.344918041339478e-06,1.6367786880887546e-06,1.5699519188999655,1.5691188991761845e-05,-1.3301897117851637e-05,-0.3139784795214372,-0.4611528515815735,-0.9537865519523621,-1.9494928121566772,6.0
-1.2786057675817522e-06,-8.167578600741532e-07,1.5699498386628623,1.535577648682516e-05,-1.5807850782807387e-05,-0.25117703103151845,-0.46318134665489197,-0.9534531235694885,-1.9477049112319946,6.0
-8.018702232765908e-06,-1.9319810700871233e-06,1.5699547190296195,1.0909854544973227e-05,-1.7542320424312703e-05,-0.18837393564333607,-0.4651918113231659,-0.9532026052474976,-1.9455947875976562,6.0
-7.3207639798378386e-06,-4.709180370969776e-06,1.5699478408112155,1.3105663150239055e-05,-1.9172513822330995e-05,-0.1255797296608049,-0.46709561347961426,-0.9531774520874023,-1.9435895681381226,6.0
-5.555969420874267e-06,7.58359800175265e-07,1.569948932277042,1.1410923664408686e-05,-1.4718113435381297e-05,-0.06276424553678538,-0.4690505564212799,-0.9533260464668274,-1.9418081045150757,6.0
-5.869084472214616e-06,1.5674557927169689e-06,1.569951546854414,1.4449012523744903e-05,-1.2948452789704424e-05,2.420611799230426e-05,-0.4711078405380249,-0.9537398815155029,-1.9401322603225708,6.0
-3.7612199280491855e-06,-6.562362793798775e-06,1.5699527295805393,1.2283949435524365e-05,-1.7321860987583785e-05,0.06283011758057144,-0.4730888307094574,-0.954390287399292,-1.9382133483886719,6.0
3.2992734120241405e-06,-2.4056412773849727e-06,1.5699488216230322,1.2432856604746707e-05,-9.287153079869516e-06,0.12562834554978394,-0.47504398226737976,-0.9550139307975769,-1.9364078044891357,6.0
-1.0365958367908189e-05,3.0318765026896456e-06,1.569949677456101,8.098065691137652e-06,-1.4971464029424109e-05,0.18842810985204356,-0.47689810395240784,-0.9558204412460327,-1.9343427419662476,6.0
-9.45668059216167e-06,1.3670386871252531e-06,1.569948018353367,4.21623511719186e-06,-1.1509211580844903e-05,0.2512131017110048,-0.47873035073280334,-0.9568912386894226,-1.9324731826782227,6.0
-5.670224715339478e-06,4.4102546284850374e-07,1.5699489609124817,8.226138407458604e-06,-1.544059721726126e-05,0.3140347093348288,-0.480574369430542,-0.9581233263015747,-1.9308974742889404,6.0
-8.131869682147731e-06,2.8988804694922944e-06,1.5699486587613056,1.3816379903358519e-05,-1.376356199472547e-05,0.37681783996234963,-0.4823532700538635,-0.9596672058105469,-1.9293012619018555,6.0
-8.15457062258101e-06,6.804948983804826e-06,1.5699459218351755,1.3638005423771086e-05,-9.711060568581569e-06,0.4396259552602247,-0.48403242230415344,-0.9611784219741821,-1.9272866249084473,6.0
-4.612811825356455e-06,-1.1585905724991064e-06,1.569948030421611,1.1682229083999614e-05,-9.424041003084949e-06,0.5024166929443453,-0.4855116307735443,-0.9624453783035278,-1.9252455234527588,6.0
-4.364134392506793e-06,4.0275563042973375e-06,1.569945445805522,1.3986545274681547e-05,-1.915597663268637e-05,0.5652228071732521,-0.4869611859321594,-0.9643623232841492,-1.9237327575683594,6.0
-1.0593113497521875e-05,2.9640093256709896e-06,1.5699550758238963,1.2992143353641419e-05,-1.4601328519579975e-05,0.6280279369318672,-0.48834723234176636,-0.9661799073219299,-1.9221059083938599,6.0
-8.655113153659934e-06,7.336512393653058e-06,1.569953896249276,1.0043849632225439e-05,-1.2396684369277175e-05,0.6908352667851855,-0.48968666791915894,-0.9682607650756836,-1.9205876588821411,6.0
-4.474359316006024e-06,-1.0929258190832853e-06,1.569947986908965,8.540208961682831e-06,-1.7356248353954265e-05,0.7536164505148101,-0.4910723865032196,-0.9702988862991333,-1.9192357063293457,6.0
-4.54380785425346e-06,5.2621467949592065e-06,1.5699484893466795,1.492534673566097e-05,-1.9958013110960357e-05,0.8164205997429558,-0.49182456731796265,-0.972212016582489,-1.9173301458358765,6.0
-3.226188003745054e-06,3.6885753781898074e-06,1.569946890250749,7.890408930624284e-06,-1.695043742815836e-05,0.8792366659636044,-0.49268874526023865,-0.9739318490028381,-1.9150612354278564,6.0
-5.0790774323630795e-06,4.436948213733133e-06,1.569953582429078,1.1212230583282755e-05,-1.4906471496579048e-05,0.9420350397824243,-0.49371305108070374,-0.9766150712966919,-1.9140266180038452,6.0
-1.245298283991478e-05,2.0798919544186706e-06,1.5699472511228267,1.1821932479411975e-05,-9.746137573507815e-06,1.0048310939013103,-0.4945153594017029,-0.9790031313896179,-1.91276216506958,6.0
-2.2834855370922273e-06,3.34105122953905e-06,1.5699513888799144,1.1209229885168102e-05,-1.3284047229607878e-05,1.0676280785894308,-0.4948021471500397,-0.9809579849243164,-1.910754680633545,6.0
-1.2556006735902076e-06,9.6872494966284e-07,1.5699555408213968,1.2318974987686421e-05,-1.5834258699854657e-05,1.1304185475849018,-0.49557027220726013,-0.9838482141494751,-1.9105364084243774,6.0
-7.946540668158004e-06,5.499079011093972e-06,1.5699510526574323,1.6251361557187764e-05,-1.9537375056119946e-05,1.1932322297090587,-0.49559929966926575,-0.9858676791191101,-1.9084409475326538,6.0
-8.287849735497703e-06,1.0829900288734865e-06,1.5699550243856861,1.112835040663515e-05,-1.7766857786750534e-05,1.2560171962411657,-0.49588829278945923,-0.988259494304657,-1.9073505401611328,6.0
-7.199828549315021e-06,5.64686626831926e-07,1.5699404528783591,1.544891744489837e-05,-1.3270993709694784e-05,1.3188253145328446,-0.4961106479167938,-0.9908483624458313,-1.9068381786346436,6.0
-7.870075871857312e-06,5.993388996517552e-06,1.5699580603046952,1.2464058627785647e-05,-1.6061867809244977e-05,1.381629667727003,-0.49582627415657043,-0.9931318163871765,-1.9050358533859253,6.0
-2.308561333321941e-06,1.0577556828313036e-06,1.5699511598755662,1.5680878796197405e-05,-1.4971041700455946e-05,1.4444273720354992,-0.4960936903953552,-0.9964184761047363,-1.90596604347229,6.0
-9.76821379205404e-06,7.6208983069218325e-06,1.5699530618698438,1.278710895537939e-05,-1.1649057360459339e-05,1.5072262617017784,-0.49561837315559387,-0.9986674189567566,-1.9049193859100342,6.0
